source/assets/img/linkedin.svg

<svg xmlns="http://www.w3.org/2000/svg" viewBox="0 0 35.35 35.35"><path d="M17.68 0a17.68 17.68 0 1 0 17.67 17.68A17.67 17.67 0 0 0 17.68 0Zm-5.84 27.33H8.07c-.2 0-.26 0-.26-.26V13.63c0-.18 0-.25.24-.25h3.83c.24 0 .28.09.27.3v13.34c.01.24-.05.32-.31.31ZM10 11.46a2.51 2.51 0 1 1 2.5-2.52 2.54 2.54 0 0 1-2.5 2.52Zm18.42 15.59c0 .22-.06.28-.29.28h-3.77c-.22 0-.27-.06-.27-.27v-7a6.26 6.26 0 0 0-.2-1.73 1.94 1.94 0 0 0-2.14-1.52 2.34 2.34 0 0 0-2.46 2.33 10.13 10.13 0 0 0-.07 1.09v6.78c0 .23-.05.29-.29.29h-3.8c-.2 0-.26 0-.26-.26V13.62c0-.22.07-.27.28-.27h3.61c.22 0 .28.07.28.28v1.6c.29-.32.53-.65.83-.93a4.53 4.53 0 0 1 3.27-1.3 7.11 7.11 0 0 1 2.05.25 4 4 0 0 1 2.85 3 12.48 12.48 0 0 1 .38 3.44c.01 2.47 0 4.91 0 7.36Z" style="fill:#fff"/></svg>

<svg xmlns="http://www.w3.org/2000/svg" viewBox="0 0 35.35 35.35"><defs><style>.a{fill:#fff;}</style></defs><path class="a" d="M17.68,0A17.68,17.68,0,1,0,35.35,17.68,17.67,17.67,0,0,0,17.68,0ZM11.84,27.33H8.07c-.2,0-.26,0-.26-.26V13.63c0-.18,0-.25.24-.25h3.83c.24,0,.28.09.27.3v6.7q0,3.32,0,6.64C12.16,27.26,12.1,27.34,11.84,27.33ZM10,11.46A2.51,2.51,0,1,1,12.5,8.94,2.54,2.54,0,0,1,10,11.46ZM28.42,27.05c0,.22-.06.28-.29.28H24.36c-.22,0-.27-.06-.27-.27q0-3.49,0-7a6.26,6.26,0,0,0-.2-1.73,1.94,1.94,0,0,0-2.14-1.52,2.34,2.34,0,0,0-2.46,2.33,10.13,10.13,0,0,0-.07,1.09c0,2.26,0,4.52,0,6.78,0,.23-.05.29-.29.29h-3.8c-.2,0-.26,0-.26-.26q0-6.7,0-13.42c0-.22.07-.27.28-.27h3.61c.22,0,.28.07.28.28,0,.53,0,1.07,0,1.6.29-.32.53-.65.83-.93A4.53,4.53,0,0,1,23.14,13a7.11,7.11,0,0,1,2.05.25,4,4,0,0,1,2.85,3,12.48,12.48,0,0,1,.38,3.44C28.43,22.16,28.42,24.6,28.42,27.05Z"/></svg>
